X: 25
T: No_120_Cowaks,_Come_and_Help_Us_Sing.krn
N: Derived from No_120_Cowaks,_Come_and_Help_Us_Sing.krn
%%abc-version 2.0
%%abcx-abcm2ps-target-version 5.9.1 (29 Sep 2008)
%%abc-creator hum2abc beta
%%abcx-conversion-date 2019/03/15 08:37:56
%%humdrum-veritas 558916823
%%humdrum-veritas-data 1938352283
%%linebreak <none>
%%barnumbers 0
L: 1/8
M: 3/4
K: Eb clef=bass
[K:clef=bass][M:3/4]C4B,C | 
B,3/B,/B,2G,2 ||  
[M:2/4]B,G, G,F,3//G,// ||  
[M:3/4]E,C,E,2C, z ||  
[M:2/4]E,F, F,F,3//F,// | 
F,F, F,F,/E,/ | 
F,2E,C, | 
F,2E,E,- | 
E,E, E,E, | 
E,2C, z | 
F,E, E,C,3//C,// | 
F,3/F,/F,2 | 
z4 | 
C3/B,/ C3/B,/ | 
C3B, | 
G,F,-F,2 | 
E,C,E,2 ||  
[M:3/4]C,3/C,/C,4 ||  
[M:2/4]E,2F,3/F,/ | 
F,2E,3/C,/ | 
F,2F,F, ||  
[M:3/4]F,F, E,C,-C,2 | 
E,3/E,/E,4 |]  



